assets/Free button/Flat/free_button_flat.svg

<svg width="32" height="32" viewBox="0 0 32 32" fill="none" xmlns="http://www.w3.org/2000/svg">
<path d="M2 6C2 3.79086 3.79086 2 6 2H26C28.2091 2 30 3.79086 30 6V26C30 28.2091 28.2091 30 26 30H6C3.79086 30 2 28.2091 2 26V6Z" fill="#00A6ED"/>
<path d="M10.2812 12.752C10.2812 12.3378 10.617 12.002 11.0312 12.002H13.3939C14.7231 12.002 15.8006 13.0795 15.8006 14.4087C15.8006 15.5444 15.0139 16.4963 13.9558 16.7494C13.8528 16.774 13.8107 16.9067 13.8879 16.9791L15.6739 18.6564C15.9759 18.94 15.9908 19.4146 15.7072 19.7165C15.4237 20.0185 14.9491 20.0334 14.6471 19.7498L11.9918 17.2563C11.912 17.1814 11.7812 17.2379 11.7812 17.3474V19.3125C11.7812 19.7267 11.4455 20.0625 11.0312 20.0625C10.617 20.0625 10.2812 19.7267 10.2812 19.3125V12.752ZM11.7812 15.1903C11.7812 15.2594 11.8372 15.3153 11.9063 15.3153H13.3939C13.8947 15.3153 14.3006 14.9094 14.3006 14.4087C14.3006 13.9079 13.8947 13.502 13.3939 13.502H11.9062C11.8372 13.502 11.7812 13.558 11.7812 13.627V15.1903Z" fill="white"/>
<path d="M4.86804 12.0866C4.45383 12.0866 4.11804 12.4224 4.11804 12.8366V19.2664C4.11804 19.6806 4.45383 20.0164 4.86804 20.0164C5.28226 20.0164 5.61804 19.6806 5.61804 19.2664V17.0394C5.61804 16.9704 5.67401 16.9144 5.74304 16.9144H8.45175C8.86596 16.9144 9.20175 16.5786 9.20175 16.1644C9.20175 15.7502 8.86596 15.4144 8.45175 15.4144H5.74304C5.67401 15.4144 5.61804 15.3585 5.61804 15.2894V13.7116C5.61804 13.6426 5.67401 13.5866 5.74304 13.5866H8.50069C8.9149 13.5866 9.25069 13.2508 9.25069 12.8366C9.25069 12.4224 8.9149 12.0866 8.50069 12.0866H4.86804Z" fill="white"/>
<path d="M17.5676 12.0866C17.1534 12.0866 16.8176 12.4224 16.8176 12.8366V19.2664C16.8176 19.6806 17.1534 20.0164 17.5676 20.0164H21.2003C21.6145 20.0164 21.9503 19.6806 21.9503 19.2664C21.9503 18.8521 21.6145 18.5164 21.2003 18.5164H18.4426C18.3736 18.5164 18.3176 18.4604 18.3176 18.3914V17.0394C18.3176 16.9704 18.3736 16.9144 18.4426 16.9144H21.1513C21.5655 16.9144 21.9013 16.5786 21.9013 16.1644C21.9013 15.7502 21.5655 15.4144 21.1513 15.4144H18.4426C18.3736 15.4144 18.3176 15.3585 18.3176 15.2894V13.7116C18.3176 13.6426 18.3736 13.5866 18.4426 13.5866H21.2003C21.6145 13.5866 21.9503 13.2508 21.9503 12.8366C21.9503 12.4224 21.6145 12.0866 21.2003 12.0866H17.5676Z" fill="white"/>
<path d="M22.9971 12.8366C22.9971 12.4224 23.3329 12.0866 23.7471 12.0866H27.3797C27.7939 12.0866 28.1297 12.4224 28.1297 12.8366C28.1297 13.2508 27.7939 13.5866 27.3797 13.5866H24.6221C24.553 13.5866 24.4971 13.6426 24.4971 13.7116V15.2894C24.4971 15.3585 24.553 15.4144 24.6221 15.4144H27.3308C27.745 15.4144 28.0808 15.7502 28.0808 16.1644C28.0808 16.5786 27.745 16.9144 27.3308 16.9144H24.6221C24.553 16.9144 24.4971 16.9704 24.4971 17.0394V18.3914C24.4971 18.4604 24.553 18.5164 24.6221 18.5164H27.3797C27.7939 18.5164 28.1297 18.8521 28.1297 19.2664C28.1297 19.6806 27.7939 20.0164 27.3797 20.0164H23.7471C23.3329 20.0164 22.9971 19.6806 22.9971 19.2664V12.8366Z" fill="white"/>
</svg>

<svg xmlns="http://www.w3.org/2000/svg" width="32" height="32" fill="none"><path fill="#00A6ED" d="M2 6a4 4 0 0 1 4-4h20a4 4 0 0 1 4 4v20a4 4 0 0 1-4 4H6a4 4 0 0 1-4-4V6Z"/><path fill="#fff" d="M10.281 12.752a.75.75 0 0 1 .75-.75h2.363a2.407 2.407 0 0 1 .562 4.747c-.103.025-.145.158-.068.23l1.786 1.677a.75.75 0 1 1-1.027 1.094l-2.655-2.494a.125.125 0 0 0-.21.091v1.965a.75.75 0 1 1-1.5 0v-6.56Zm1.5 2.438c0 .07.056.125.125.125h1.488a.907.907 0 1 0 0-1.813h-1.488a.125.125 0 0 0-.125.125v1.563ZM4.868 12.087a.75.75 0 0 0-.75.75v6.43a.75.75 0 0 0 1.5 0v-2.228c0-.069.056-.125.125-.125h2.709a.75.75 0 0 0 0-1.5H5.743a.125.125 0 0 1-.125-.125v-1.577c0-.07.056-.125.125-.125h2.758a.75.75 0 0 0 0-1.5H4.868ZM17.568 12.087a.75.75 0 0 0-.75.75v6.43c0 .414.335.75.75.75H21.2a.75.75 0 0 0 0-1.5h-2.757a.125.125 0 0 1-.125-.126V17.04c0-.069.056-.125.125-.125h2.708a.75.75 0 0 0 0-1.5h-2.708a.125.125 0 0 1-.125-.125v-1.577c0-.07.056-.125.125-.125H21.2a.75.75 0 0 0 0-1.5h-3.632ZM22.997 12.837a.75.75 0 0 1 .75-.75h3.633a.75.75 0 0 1 0 1.5h-2.758a.125.125 0 0 0-.125.125v1.577c0 .07.056.125.125.125h2.709a.75.75 0 0 1 0 1.5h-2.709a.125.125 0 0 0-.125.125v1.352c0 .07.056.125.125.125h2.758a.75.75 0 1 1 0 1.5h-3.633a.75.75 0 0 1-.75-.75v-6.43Z"/></svg>
